build/assets/img/salesman-black.svg

<svg width="69" height="69" viewBox="0 0 69 69" fill="none" xmlns="http://www.w3.org/2000/svg">
<path d="M50.9936 44.4449L42.2908 42.5106V39.7606C45.5382 37.4168 47.6883 33.6563 47.8319 29.3883C50.7132 26.3478 52.3069 22.3948 52.3069 18.1881V13.3549C52.3069 10.5359 50.2001 8.19999 47.478 7.83821C45.1442 3.05491 40.2908 0 34.9278 0H33.0548C29.4345 0 25.8676 1.22417 23.0098 3.44674C18.9953 6.56837 16.6938 11.2759 16.6938 16.3607V18.1893C16.6938 22.3948 18.2876 26.349 21.1688 29.3895C21.3135 33.6575 23.4625 37.418 26.71 39.7618V42.5118L18.0072 44.4449C11.3364 45.9273 6.67773 51.7332 6.67773 58.5676V69H29.9518H39.0486H62.3226V58.5676C62.3228 51.7332 57.6644 45.9273 50.9936 44.4449ZM43.2666 45.0068L41.5683 52.6479L36.3198 48.8997L41.4703 44.6072L43.2666 45.0068ZM34.5003 47.5186L28.9357 42.8812V41.0605C30.6319 41.8417 32.5127 42.2902 34.5003 42.2902C36.4879 42.2902 38.3687 41.8417 40.0648 41.0605V42.8812L34.5003 47.5186ZM21.1454 18.9194V25.7783C19.7019 23.5325 18.9196 20.9227 18.9196 18.1883V16.3607C18.9196 11.9681 20.9084 7.90151 24.3762 5.20397C26.8446 3.28308 29.9273 2.22578 33.0546 2.22578H34.9276C39.6307 2.22578 43.8664 5.01907 45.7193 9.34163L46.0088 10.0161H46.7422C48.5829 10.0161 50.081 11.5141 50.081 13.3549V18.1883C50.081 20.9227 49.2985 23.5325 47.8552 25.7783V16.6937H46.3027C44.1626 16.6937 42.1772 15.6307 40.9907 13.8503L40.6602 13.3551H38.3208L37.9969 13.8948C36.1383 16.9941 32.7373 18.9194 29.1238 18.9194H21.1454ZM23.3714 28.9353V21.145H29.124C33.2819 21.145 37.2082 19.0472 39.532 15.6273C41.02 17.5248 43.2257 18.7067 45.6296 18.8938V28.9355C45.6296 35.072 40.6372 40.0647 34.5005 40.0647C28.3638 40.0647 23.3714 35.072 23.3714 28.9353ZM27.5291 44.6084L32.6796 48.9009L27.4311 52.6491L25.7328 45.008L27.5291 44.6084ZM30.1377 66.774H20.0326V62.3225H17.8068V66.774H8.90351V58.5674C8.90351 52.7859 12.8455 47.8714 18.4889 46.6182L23.5605 45.4908L25.9888 56.4162L29.8362 53.6673L31.1227 54.9538L30.1377 66.774ZM36.6293 66.774H32.3713L33.4264 54.1102L31.6713 52.3552L34.5003 50.3354L37.3292 52.3564L35.5742 54.1115L36.6293 66.774ZM60.0971 66.774H51.1939V62.3225H48.9682V66.774H38.8629L37.8779 54.9538L39.1644 53.6673L43.0118 56.4162L45.4401 45.4908L50.5116 46.6182C56.1551 47.8714 60.0971 52.7859 60.0971 58.5674V66.774Z" fill="#583350"/>
<path d="M32 25L27 25" stroke="#583350" stroke-width="2"/>
<path d="M42 25L37 25" stroke="#583350" stroke-width="2"/>
</svg>

<svg width="69" height="69" fill="none" xmlns="http://www.w3.org/2000/svg"><path d="M50.994 44.445L42.29 42.51v-2.75c3.247-2.344 5.397-6.105 5.54-10.373 2.882-3.04 4.476-6.993 4.476-11.2v-4.833a5.574 5.574 0 00-4.829-5.517A13.952 13.952 0 0034.928 0h-1.873A16.44 16.44 0 0023.01 3.447a16.253 16.253 0 00-6.316 12.914v1.828c0 4.206 1.594 8.16 4.475 11.2a13.333 13.333 0 005.541 10.373v2.75l-8.703 1.933c-6.67 1.482-11.33 7.288-11.33 14.123V69h55.646V58.568c0-6.835-4.659-12.64-11.33-14.123zm-7.727.562l-1.699 7.64L36.32 48.9l5.15-4.293 1.797.4zM34.5 47.519l-5.564-4.638v-1.82a13.263 13.263 0 005.564 1.23c1.988 0 3.869-.45 5.565-1.23v1.82L34.5 47.52zm-13.355-28.6v6.86a13.98 13.98 0 01-2.225-7.59V16.36c0-4.393 1.988-8.46 5.456-11.157a14.199 14.199 0 018.679-2.978h1.873c4.703 0 8.938 2.793 10.791 7.116l.29.674h.733a3.343 3.343 0 013.339 3.339v4.833c0 2.735-.783 5.345-2.226 7.59v-9.084h-1.552a6.37 6.37 0 01-5.312-2.844l-.33-.495h-2.34l-.324.54a10.4 10.4 0 01-8.873 5.024h-7.979zm2.226 10.016v-7.79h5.753c4.158 0 8.084-2.098 10.408-5.518a8.585 8.585 0 006.098 3.267v10.042c0 6.136-4.993 11.129-11.13 11.129-6.136 0-11.129-4.993-11.129-11.13zm4.158 15.673l5.15 4.293-5.248 3.748-1.698-7.641 1.796-.4zm2.609 22.166H20.033v-4.452h-2.226v4.452H8.904v-8.207c0-5.781 3.941-10.696 9.585-11.949l5.072-1.127 2.428 10.925 3.847-2.749 1.287 1.287-.985 11.82zm6.491 0h-4.258l1.055-12.664-1.755-1.755 2.83-2.02 2.828 2.021-1.755 1.755 1.055 12.663zm23.468 0h-8.903v-4.452h-2.226v4.452H38.863l-.985-11.82 1.286-1.287 3.848 2.75L45.44 45.49l5.072 1.127c5.643 1.253 9.585 6.168 9.585 11.95v8.206z" fill="#583350"/><path d="M32 25h-5m15 0h-5" stroke="#583350" stroke-width="2"/></svg>
